vendor/craftcms/cms/src/icons/solid/fort.svg

<svg xmlns="http://www.w3.org/2000/svg" viewBox="0 0 640 512"><!--! Font Awesome Pro 6.7.2 by @fontawesome - https://fontawesome.com License - https://fontawesome.com/license (Commercial License) Copyright 2024 Fonticons, Inc. --><path d="M0 16C0 7.2 7.2 0 16 0L48 0c8.8 0 16 7.2 16 16l0 48 32 0 0-48c0-8.8 7.2-16 16-16l32 0c8.8 0 16 7.2 16 16l0 48 32 0 0-48c0-8.8 7.2-16 16-16l32 0c8.8 0 16 7.2 16 16l0 80 0 16 0 48 128 0 0-48 0-16 0-80c0-8.8 7.2-16 16-16l32 0c8.8 0 16 7.2 16 16l0 48 32 0 0-48c0-8.8 7.2-16 16-16l32 0c8.8 0 16 7.2 16 16l0 48 32 0 0-48c0-8.8 7.2-16 16-16l32 0c8.8 0 16 7.2 16 16l0 80 0 16 0 64c0 20.9-13.4 38.7-32 45.3L608 464c0 26.5-21.5 48-48 48l-176 0 0-128c0-35.3-28.7-64-64-64s-64 28.7-64 64l0 128L80 512c-26.5 0-48-21.5-48-48l0-242.7C13.4 214.7 0 196.9 0 176l0-64L0 96 0 16z"/></svg>

<svg xmlns="http://www.w3.org/2000/svg" viewBox="0 0 640 512"><!--! Font Awesome Pro 6.5.1 by @fontawesome - https://fontawesome.com License - https://fontawesome.com/license (Commercial License) Copyright 2023 Fonticons, Inc. --><path d="M0 16C0 7.2 7.2 0 16 0H48c8.8 0 16 7.2 16 16V64H96V16c0-8.8 7.2-16 16-16h32c8.8 0 16 7.2 16 16V64h32V16c0-8.8 7.2-16 16-16h32c8.8 0 16 7.2 16 16V96v16 48H384V112 96 16c0-8.8 7.2-16 16-16h32c8.8 0 16 7.2 16 16V64h32V16c0-8.8 7.2-16 16-16h32c8.8 0 16 7.2 16 16V64h32V16c0-8.8 7.2-16 16-16h32c8.8 0 16 7.2 16 16V96v16 64c0 20.9-13.4 38.7-32 45.3V464c0 26.5-21.5 48-48 48H384V384c0-35.3-28.7-64-64-64s-64 28.7-64 64V512H80c-26.5 0-48-21.5-48-48V221.3C13.4 214.7 0 196.9 0 176V112 96 16z"/></svg>
